!! 00000] TT[00
!! NN
!!!OTL: Niu li ge
!!!ARE: Asia, China,Taiwan
!! Ethnic Group: Han
!! IV, 623 (2)
!!!SCT: C0444
!!!YEM: Copyright 1995, estate of Helmut Schaffrath.
**kern
*ICvox
*Ivox
*M2/4
*k[f#c#]
*D:
{4B
8d
8B
=1
4d
8e
8d
=2
2B}
=3
{8f#
8a
8f#
8e
=4
8d
8B
4f#
=5
4.e
8f#}
=6
{4B
8d
8B
=7
4d
8e
8d
=8
2B}
=9
{8B
8d
8B
8e
=10
8d
8B
8A
8F#
=11
2B}
=12
{8B
8e
8d
8B
=13
4d
8e
8d
=14
2B}
=15
{8f#
8a
8f#
8e
=16
8d
8B
4f#
=17
4.e
8f#}
=18
{4B
8d
8B
=19
4d
8e
8d
=20
2B}
=21
{8B
8d
8B
8e
=22
8d
8B
8A
8F#
=23
2B}
=24
{4B
4f#
=25
8e
8f#
8e
8B
=26
4d
8e
8d
=27
2B}
=28
{8B
8d
8B
8e
=29
8d
8B
8A
8F#
=30
8B
8d
8B
8A}
=31
{4F#
4F#
=32
4B
8F#
8A
=33
4B
8A
8d
=34
[2B
=35
2B]}
==
!!!AGN: Che gu diao, Arbeitslied
!! Auch im Sueden von Fujian verbreitet.
!!    Glissando. Vorspiel weggelassen.
!!!ONB: ESAC (Essen Associative Code) Database: CHINA_063
!!!AMT: simple duple
!!!AIN: vox
!!!EED: Helmut Schaffrath
!!!EEV: 1.0
*-
!!!ONB: Tied note syntax fixed by Craig Sapp, 2004/05/03/
